packages/icons/svgs/duotone/Source=pulse.svg

<svg width="24" height="24" viewBox="0 0 24 24" fill="none" xmlns="http://www.w3.org/2000/svg">
<path fill-rule="evenodd" clip-rule="evenodd" d="M10.0799 6.00319C10.4586 6.03354 10.7874 6.27586 10.9285 6.62861L14.1797 14.7568L16.1425 11.4855C16.3232 11.1843 16.6487 11 17 11H23C23.5523 11 24 11.4477 24 12C24 12.5523 23.5523 13 23 13H17.5662L14.8575 17.5145C14.662 17.8403 14.2988 18.0271 13.9201 17.9968C13.5414 17.9665 13.2126 17.7241 13.0715 17.3714L9.82026 9.24322L7.85749 12.5145C7.67677 12.8157 7.35126 13 7 13H1C0.447715 13 0 12.5523 0 12C0 11.4477 0.447715 11 1 11H6.43381L9.14251 6.4855C9.33797 6.15972 9.70117 5.97285 10.0799 6.00319Z" fill="black" style="fill:black;fill-opacity:1;"/>
<g opacity="0.5">
<path fill-rule="evenodd" clip-rule="evenodd" d="M4 15C4.55228 15 5 15.4477 5 16V19.9983C5.00112 20.2636 5.10701 20.5177 5.29464 20.7054C5.48228 20.893 5.73645 20.9989 6.00179 21H17.9982C18.2635 20.9989 18.5177 20.893 18.7054 20.7054C18.893 20.5177 18.9989 20.2636 19 19.9983V16C19 15.4477 19.4477 15 20 15C20.5523 15 21 15.4477 21 16V20L21 20.003C20.9976 20.7971 20.6811 21.558 20.1196 22.1196C19.558 22.6811 18.7971 22.9976 18.003 23L18 23H6L5.99701 23C5.20289 22.9976 4.44196 22.6811 3.88043 22.1196C3.31889 21.558 3.00238 20.7971 3 20.003L3 20V16C3 15.4477 3.44772 15 4 15Z" fill="black" style="fill:black;fill-opacity:1;"/>
<path fill-rule="evenodd" clip-rule="evenodd" d="M5.99998 1H18.003C18.7971 1.00238 19.558 1.31889 20.1196 1.88043C20.6811 2.44196 20.9976 3.20289 21 3.99701L21 4L21 8C21 8.55228 20.5523 9 20 9C19.4477 9 19 8.55228 19 8V4.00168C18.9988 3.73638 18.893 3.48226 18.7053 3.29464C18.5177 3.10701 18.2636 3.00112 17.9982 3H6.00173C5.73641 3.00112 5.48226 3.10701 5.29463 3.29464C5.10699 3.48227 5.0011 3.73643 4.99998 4.00175V8C4.99998 8.55228 4.55227 9 3.99998 9C3.4477 9 2.99998 8.55228 2.99998 8V3.99701C3.00236 3.20289 3.31888 2.44196 3.88041 1.88043C4.44195 1.31889 5.20287 1.00238 5.997 1L5.99998 1Z" fill="black" style="fill:black;fill-opacity:1;"/>
</g>
</svg>

<svg xmlns="http://www.w3.org/2000/svg" width="24" height="24" viewBox="0 0 24 24"><path fill-rule="evenodd" d="M10.08 6.003a1 1 0 0 1 .848.626l3.252 8.128 1.962-3.271A1 1 0 0 1 17 11h6a1 1 0 1 1 0 2h-5.434l-2.708 4.515a1 1 0 0 1-1.787-.144l-3.25-8.128-1.964 3.271A1 1 0 0 1 7 13H1a1 1 0 1 1 0-2h5.434l2.709-4.514a1 1 0 0 1 .937-.483" clip-rule="evenodd"/><path fill-rule="evenodd" d="M4 15a1 1 0 0 1 1 1v3.998A1.006 1.006 0 0 0 6.002 21h11.996A1.006 1.006 0 0 0 19 19.998V16a1 1 0 1 1 2 0v4.003A3.006 3.006 0 0 1 18.003 23H5.997A3.006 3.006 0 0 1 3 20.003V16a1 1 0 0 1 1-1M6 1h12.003A3.006 3.006 0 0 1 21 3.997V8a1 1 0 1 1-2 0V4.002A1.006 1.006 0 0 0 17.998 3H6.002A1.006 1.006 0 0 0 5 4.002V8a1 1 0 1 1-2 0V3.997A3.006 3.006 0 0 1 5.997 1z" clip-rule="evenodd" opacity=".5"/></svg>
